public/assets/logo_with_background.svg

<svg xmlns="http://www.w3.org/2000/svg" xml:space="preserve" style="fill-rule:evenodd;clip-rule:evenodd;stroke-linejoin:round;stroke-miterlimit:2" viewBox="0 0 1349 1349"><circle cx="674.5" cy="674.5" r="674.5" style="fill:#111"/><path d="M2040.17 3506.51C1238.78 3502.29 589.465 2850.38 589.465 2048c0-804.99 653.545-1458.535 1458.535-1458.535S3506.53 1243.01 3506.53 2048c0 804.98-653.53 1458.52-1458.51 1458.53v.03c-2.62 0-5.24-.01-7.85-.05m2.61-186.4c1.74.01 3.48.01 5.22.01 702.11 0 1272.12-570.01 1272.12-1272.12S2750.11 775.875 2048 775.875 775.875 1345.89 775.875 2048c0 505.96 296.015 943.33 724.165 1148.21-57.63-95.96-90.78-208.31-90.78-328.4.01-144.95 49.34-285.66 139.85-398.87l145.6 116.4a452.34 452.34 0 0 0-99.03 282.47c0 248.07 199.69 449.5 447.1 452.3" style="fill:#eee" transform="matrix(.29641 0 0 .29641 67.413 67.41)"/><path d="M1503.48 2394.84c-90.8 113.58-140.3 254.75-140.3 400.16 0 353.91 286.91 640.82 640.82 640.82V3248.8c-250.63 0-453.8-203.17-453.8-453.8 0-103 35.03-202.93 99.35-283.38z" style="fill:url(#a)" transform="matrix(.29546 0 0 .29546 82.376 91.66)"/><path d="M227.666 88.961h3.55c10.103 0 18.305-8.202 18.305-18.305v-8.033l-4.484 4.483v3.55c0 7.628-6.193 13.821-13.821 13.821h-8.033z" style="fill:url(#b)" transform="translate(-2238.62 -259.684)scale(12.3252)"/><path d="M249.521 62.623h-8.033c-10.103 0-18.305 8.202-18.305 18.305v8.033h4.483v-8.033c0-7.629 6.193-13.822 13.822-13.822h8.033z" style="fill:url(#c)" transform="translate(-2238.62 -259.684)scale(12.3252)"/><defs><linearGradient id="a" x1="0" x2="1" y1="0" y2="0" gradientTransform="scale(-812.927)rotate(63.504 1.997 -3.99)" gradientUnits="userSpaceOnUse"><stop offset="0" style="stop-color:#00b85c;stop-opacity:0"/><stop offset="1" style="stop-color:#00b858;stop-opacity:1"/></linearGradient><linearGradient id="b" x1="0" x2="1" y1="0" y2="0" gradientTransform="rotate(-90 166.999 -80.28)scale(19.6465)" gradientUnits="userSpaceOnUse"><stop offset="0" style="stop-color:#00b85c;stop-opacity:1"/><stop offset="1" style="stop-color:#008f45;stop-opacity:1"/></linearGradient><linearGradient id="c" x1="0" x2="1" y1="0" y2="0" gradientTransform="rotate(-90 156.074 -71.558)scale(21.8934)" gradientUnits="userSpaceOnUse"><stop offset="0" style="stop-color:#00b85c;stop-opacity:1"/><stop offset="1" style="stop-color:#0c6;stop-opacity:1"/></linearGradient></defs></svg>

<?xml version="1.0" encoding="UTF-8" standalone="no"?>
<!DOCTYPE svg PUBLIC "-//W3C//DTD SVG 1.1//EN" "http://www.w3.org/Graphics/SVG/1.1/DTD/svg11.dtd">
<svg width="100%" height="100%" viewBox="0 0 1349 1349" version="1.1" xmlns="http://www.w3.org/2000/svg" xmlns:xlink="http://www.w3.org/1999/xlink" xml:space="preserve" xmlns:serif="http://www.serif.com/" style="fill-rule:evenodd;clip-rule:evenodd;stroke-linejoin:round;stroke-miterlimit:2;">
    <circle cx="674.5" cy="674.5" r="674.5" style="fill:rgb(17,17,17);"/>
    <g transform="matrix(0.296413,0,0,0.296413,67.4135,67.4102)">
        <path d="M2040.17,3506.51C1238.78,3502.29 589.465,2850.38 589.465,2048C589.465,1243.01 1243.01,589.465 2048,589.465C2852.99,589.465 3506.53,1243.01 3506.53,2048C3506.53,2852.98 2853,3506.52 2048.02,3506.53L2048.02,3506.56C2045.4,3506.56 2042.78,3506.55 2040.17,3506.51ZM2042.78,3320.11C2044.52,3320.12 2046.26,3320.12 2048,3320.12C2750.11,3320.12 3320.12,2750.11 3320.12,2048C3320.12,1345.89 2750.11,775.875 2048,775.875C1345.89,775.875 775.875,1345.89 775.875,2048C775.875,2553.96 1071.89,2991.33 1500.04,3196.21C1442.41,3100.25 1409.26,2987.9 1409.26,2867.81C1409.27,2722.86 1458.6,2582.15 1549.11,2468.94L1694.71,2585.34C1630.6,2665.53 1595.68,2765.14 1595.68,2867.81C1595.68,3115.88 1795.37,3317.31 2042.78,3320.11Z" style="fill:rgb(238,238,238);"/>
    </g>
    <g transform="matrix(0.295458,0,0,0.295458,82.3755,91.6605)">
        <path d="M1503.48,2394.84C1412.68,2508.42 1363.18,2649.59 1363.18,2795C1363.18,3148.91 1650.09,3435.82 2004,3435.82L2004,3248.8C1753.37,3248.8 1550.2,3045.63 1550.2,2795C1550.2,2692 1585.23,2592.07 1649.55,2511.62L1503.48,2394.84Z" style="fill:url(#_Linear1);"/>
    </g>
    <g transform="matrix(12.3252,0,0,12.3252,-2238.62,-259.684)">
        <path d="M227.666,88.961L231.216,88.961C241.319,88.961 249.521,80.759 249.521,70.656L249.521,62.623L245.037,67.106L245.037,70.656C245.037,78.284 238.844,84.477 231.216,84.477L223.183,84.477L227.666,88.961Z" style="fill:url(#_Linear2);"/>
    </g>
    <g transform="matrix(12.3252,0,0,12.3252,-2238.62,-259.684)">
        <path d="M249.521,62.623L241.488,62.623C231.385,62.623 223.183,70.825 223.183,80.928L223.183,88.961L227.666,88.961L227.666,80.928C227.666,73.299 233.859,67.106 241.488,67.106L249.521,67.106L249.521,62.623Z" style="fill:url(#_Linear3);"/>
    </g>
    <defs>
        <linearGradient id="_Linear1" x1="0" y1="0" x2="1" y2="0" gradientUnits="userSpaceOnUse" gradientTransform="matrix(-362.67,-727.544,727.544,-362.67,2004.02,3249.46)"><stop offset="0" style="stop-color:rgb(0,184,92);stop-opacity:0"/><stop offset="1" style="stop-color:rgb(0,184,88);stop-opacity:1"/></linearGradient>
        <linearGradient id="_Linear2" x1="0" y1="0" x2="1" y2="0" gradientUnits="userSpaceOnUse" gradientTransform="matrix(1.203e-15,-19.6465,19.6465,1.203e-15,247.279,86.719)"><stop offset="0" style="stop-color:rgb(0,184,92);stop-opacity:1"/><stop offset="1" style="stop-color:rgb(0,143,69);stop-opacity:1"/></linearGradient>
        <linearGradient id="_Linear3" x1="0" y1="0" x2="1" y2="0" gradientUnits="userSpaceOnUse" gradientTransform="matrix(1.34058e-15,-21.8934,21.8934,1.34058e-15,227.632,84.5164)"><stop offset="0" style="stop-color:rgb(0,184,92);stop-opacity:1"/><stop offset="1" style="stop-color:rgb(0,204,102);stop-opacity:1"/></linearGradient>
    </defs>
</svg>
